X: 3644
T: Bill Sullivan's
R: polka
M: 2/4
K: Amajor
|:a2 a>f|ec a2|ce a>f|ec BA|
a2 a>f|ec a2|ce Bc|BA A2:|
|:ce ec|df fe|ce ed|dc BA|
ce ec|df fe|ce Bc|BA A2:|

